img/icons/iconDocument.svg

<svg width="21" height="20" viewBox="0 0 21 20" fill="none" xmlns="http://www.w3.org/2000/svg">
<path fill-rule="evenodd" clip-rule="evenodd" d="M6.79345 2.06183L6.55712 2.11394C6.5478 2.116 6.53864 2.11871 6.52971 2.12208L6.2928 2.21127L6.05833 2.29959C6.04778 2.30356 6.03758 2.30842 6.02785 2.31412L5.75089 2.47612L5.48153 2.63367C5.46677 2.6423 5.45318 2.65279 5.44109 2.66488L5.12508 2.9809L4.809 3.29698C4.79695 3.30902 4.78649 3.32256 4.77787 3.33726L4.61133 3.62139L4.44161 3.91086C4.43506 3.92204 4.42961 3.93383 4.42534 3.94606L4.29842 4.30933L4.17624 4.65895C4.16882 4.68016 4.16504 4.70246 4.16504 4.72493V9.98953V15.2574C4.16504 15.2777 4.16814 15.2979 4.17422 15.3173L4.26283 15.5995L4.35581 15.8956C4.35902 15.9058 4.36303 15.9158 4.36782 15.9253L4.48679 16.1627L4.60611 16.4009C4.61066 16.41 4.61591 16.4187 4.6218 16.427L4.79056 16.6649L4.95634 16.8985C4.9642 16.9096 4.97317 16.9198 4.98312 16.9291L5.17155 17.1047L5.36392 17.2839C5.37126 17.2907 5.3791 17.297 5.38738 17.3026L5.56269 17.4225L5.75043 17.5508L6.00221 17.6775L6.23948 17.797C6.24914 17.8019 6.25919 17.806 6.26951 17.8092L6.56544 17.9021L6.84764 17.9907C6.86703 17.9968 6.88723 17.9999 6.90755 17.9999H10.8195H14.7315C14.7518 17.9999 14.772 17.9968 14.7914 17.9907L15.0736 17.9021L15.3697 17.8091C15.3799 17.8059 15.3898 17.8019 15.3994 17.7971L15.6368 17.6782L15.8749 17.5589C15.884 17.5543 15.8927 17.549 15.901 17.5432L16.1389 17.3744L16.3726 17.2086C16.3836 17.2008 16.3939 17.1918 16.4032 17.1818L16.5787 16.9934L16.7579 16.801C16.7647 16.7937 16.771 16.7859 16.7767 16.7776L16.8965 16.6023L17.0248 16.4145L17.1507 16.1642L17.2766 15.9139L17.3753 15.6218L17.4635 15.3606C17.4704 15.3402 17.474 15.3188 17.474 15.2973L17.4867 11.6375L17.4994 7.97358C17.4995 7.95476 17.4969 7.93603 17.4917 7.91793L17.4519 7.77833L17.4184 7.66114C17.4091 7.62854 17.3917 7.59885 17.3677 7.57484L14.7272 4.92613L12.0652 2.25585C12.0553 2.24588 12.0443 2.23699 12.0325 2.22932L11.8648 2.12041L11.7291 2.03233C11.6966 2.01123 11.6587 2.00003 11.6199 2.00008L9.36153 2.0033L7.06542 2.0066C7.05103 2.00662 7.03669 2.0082 7.02264 2.01129L6.79345 2.06183ZM10.829 4.6597L10.8443 5.95335C10.8445 5.97388 10.8479 5.99426 10.8543 6.01376L10.9412 6.27638L11.0331 6.55446C11.0362 6.56376 11.0399 6.57282 11.0443 6.58156L11.1636 6.81875L11.2895 7.06907L11.4178 7.25682L11.5377 7.43213C11.5433 7.4404 11.5496 7.44825 11.5564 7.45558L11.7356 7.64795L11.9112 7.83639C11.9204 7.84633 11.9307 7.8553 11.9418 7.86317L12.1754 8.02894L12.4132 8.19768C12.4216 8.20358 12.4303 8.20884 12.4395 8.21341L12.6761 8.33184L12.9134 8.45063C12.9221 8.45496 12.931 8.45865 12.9402 8.46168L13.2184 8.55367L13.4811 8.64048C13.5006 8.64693 13.5209 8.65033 13.5415 8.65057L14.8368 8.6659L15.9648 8.6792C16.0746 8.6805 16.1628 8.77012 16.1624 8.87995L16.151 11.8597L16.139 15.0031C16.1389 15.026 16.1349 15.0488 16.1272 15.0703L16.0418 15.3067L15.953 15.5529C15.9475 15.568 15.9403 15.5823 15.9315 15.5957L15.7991 15.7951L15.6681 15.9924C15.6583 16.0071 15.6467 16.0204 15.6334 16.0321L15.5072 16.1429L15.3728 16.2609C15.3649 16.2678 15.3565 16.2741 15.3476 16.2797L15.2075 16.3682L15.0719 16.4538C15.06 16.4613 15.0474 16.4675 15.0343 16.4723L14.7829 16.565L14.5453 16.6525C14.5231 16.6607 14.4997 16.6649 14.4761 16.6649H10.8195H7.16221C7.13906 16.6649 7.11608 16.6608 7.0943 16.653L6.85828 16.5678L6.61201 16.4789C6.59696 16.4735 6.58261 16.4663 6.56928 16.4574L6.36756 16.3235L6.16901 16.1917C6.15357 16.1815 6.13962 16.1691 6.12758 16.155L5.98227 15.985L5.83527 15.8131C5.82434 15.8003 5.81507 15.7862 5.80767 15.7711L5.70875 15.5691L5.60961 15.3665C5.60239 15.3517 5.59701 15.3361 5.5936 15.3201L5.5397 15.0659L5.48505 14.8079C5.48216 14.7943 5.4807 14.7804 5.4807 14.7665V10.0104V5.25431C5.4807 5.24038 5.48216 5.22649 5.48505 5.21286L5.5397 4.95492L5.5936 4.70072C5.59701 4.68464 5.60239 4.66905 5.60961 4.65429L5.70875 4.45172L5.80767 4.24972C5.81507 4.23461 5.82434 4.2205 5.83527 4.20772L5.98227 4.03577L6.12726 3.86613C6.13951 3.85179 6.15373 3.83926 6.16949 3.82891L6.36531 3.70029L6.56621 3.56834C6.5786 3.56021 6.59184 3.55347 6.60571 3.54827L6.77376 3.48518L6.94456 3.42106C6.95663 3.41653 6.96911 3.41318 6.98183 3.41105L7.1701 3.37954L7.36145 3.34756C7.37216 3.34577 7.38299 3.34485 7.39385 3.34482L9.09543 3.33999L10.6151 3.33563C10.7248 3.33532 10.8143 3.42351 10.8156 3.53326L10.829 4.6597ZM15.0862 7.33504L15.0363 7.3456C15.0205 7.34895 15.0043 7.35037 14.9881 7.34982L14.4075 7.33004L13.8323 7.31044C13.8126 7.30977 13.793 7.30618 13.7743 7.29978L13.5336 7.21735L13.289 7.13362C13.2729 7.12808 13.2575 7.12048 13.2432 7.11103L13.0429 6.97804L12.8443 6.84626C12.8289 6.83601 12.8149 6.82366 12.8029 6.80957L12.6576 6.63956L12.5106 6.46761C12.4997 6.45482 12.4904 6.44071 12.483 6.4256L12.3841 6.2236L12.2849 6.02104C12.2777 6.00628 12.2723 5.99068 12.2689 5.97461L12.215 5.72041L12.1603 5.46233C12.1575 5.44879 12.156 5.43499 12.156 5.42114L12.1553 4.87894L12.1552 4.79941C12.155 4.62114 12.3705 4.53168 12.4966 4.6577L13.6572 5.81766L15.1066 7.26613C15.1295 7.28906 15.1179 7.32831 15.0862 7.33504ZM7.80972 8.09783L7.70507 8.15849C7.67411 8.17643 7.64853 8.20236 7.631 8.23356L7.56983 8.34243L7.50751 8.45328C7.49068 8.48321 7.48184 8.51696 7.48184 8.5513V8.67532V8.79936C7.48184 8.83369 7.49068 8.86744 7.5075 8.89736L7.57021 9.00892L7.6311 9.11725C7.64907 9.14922 7.67548 9.17563 7.70744 9.1936L7.81577 9.25449L7.92734 9.3172C7.95726 9.33402 7.99101 9.34286 8.02534 9.34286H8.81691H9.60848C9.6428 9.34286 9.67655 9.33402 9.70648 9.3172L9.81804 9.25449L9.92637 9.1936C9.95833 9.17563 9.98475 9.14922 10.0027 9.11725L10.0636 9.00892L10.1263 8.89736C10.1431 8.86744 10.152 8.83369 10.152 8.79936V8.67532V8.55129C10.152 8.51696 10.1431 8.48321 10.1263 8.45329L10.0636 8.34172L10.0027 8.23339C9.98475 8.20143 9.95833 8.17502 9.92637 8.15705L9.81804 8.09616L9.70658 8.03351C9.67659 8.01665 9.64276 8.00781 9.60836 8.00785L8.81123 8.00875L8.01532 8.00965C7.98015 8.00969 7.94561 8.019 7.91519 8.03665L7.80972 8.09783ZM7.80972 10.768L7.70507 10.8286C7.67411 10.8466 7.64853 10.8725 7.631 10.9037L7.56983 11.0126L7.50751 11.1234C7.49068 11.1533 7.48184 11.1871 7.48184 11.2214V11.3455V11.4695C7.48184 11.5038 7.49068 11.5376 7.5075 11.5675L7.57021 11.6791L7.6311 11.7874C7.64907 11.8194 7.67548 11.8458 7.70744 11.8637L7.81577 11.9246L7.92734 11.9873C7.95726 12.0042 7.99101 12.013 8.02534 12.013H10.8195H13.6137C13.648 12.013 13.6817 12.0042 13.7117 11.9873L13.8232 11.9246L13.9316 11.8637C13.9635 11.8458 13.9899 11.8194 14.0079 11.7874L14.0688 11.6791L14.1315 11.5675C14.1483 11.5376 14.1572 11.5038 14.1572 11.4695V11.3455V11.2214C14.1572 11.1871 14.1483 11.1533 14.1315 11.1234L14.0688 11.0119L14.0079 10.9035C13.9899 10.8716 13.9635 10.8451 13.9316 10.8272L13.8232 10.7663L13.7117 10.7036C13.6818 10.6868 13.648 10.6779 13.6136 10.6779L10.8138 10.6789L8.0154 10.6798C7.98018 10.6798 7.94559 10.6891 7.91512 10.7068L7.80972 10.768ZM7.80972 13.4381L7.70507 13.4987C7.67411 13.5167 7.64853 13.5426 7.631 13.5738L7.56983 13.6827L7.50751 13.7935C7.49068 13.8235 7.48184 13.8572 7.48184 13.8916V14.0156V14.1396C7.48184 14.1739 7.49068 14.2077 7.5075 14.2376L7.57021 14.3492L7.6311 14.4575C7.64907 14.4895 7.67548 14.5159 7.70744 14.5339L7.81577 14.5948L7.92734 14.6575C7.95726 14.6743 7.99101 14.6831 8.02534 14.6831H10.8195H13.6137C13.648 14.6831 13.6817 14.6743 13.7117 14.6575L13.8232 14.5948L13.9316 14.5339C13.9635 14.5159 13.9899 14.4895 14.0079 14.4575L14.0688 14.3492L14.1315 14.2376C14.1483 14.2077 14.1572 14.1739 14.1572 14.1396V14.0156V13.8915C14.1572 13.8572 14.1483 13.8235 14.1315 13.7935L14.0688 13.682L14.0079 13.5737C13.9899 13.5417 13.9635 13.5153 13.9316 13.4973L13.8232 13.4364L13.7117 13.3737C13.6818 13.3569 13.648 13.3481 13.6136 13.3481L10.8138 13.349L8.0154 13.35C7.98018 13.35 7.94559 13.3593 7.91512 13.377L7.80972 13.4381Z" fill="#F56311"/>
</svg>

<svg width="21" height="20" fill="none" xmlns="http://www.w3.org/2000/svg"><path fill-rule="evenodd" clip-rule="evenodd" d="m6.793 2.062-.236.052a.2.2 0 0 0-.027.008l-.237.09-.235.088a.199.199 0 0 0-.03.014l-.277.162-.27.158a.2.2 0 0 0-.04.03l-.316.317-.316.316a.2.2 0 0 0-.031.04l-.167.284-.17.29a.2.2 0 0 0-.016.035l-.127.363-.122.35a.2.2 0 0 0-.011.066v10.532a.2.2 0 0 0 .01.06l.088.283.093.296.012.03.119.237.12.238a.135.135 0 0 0 .015.026l.169.238.165.233a.2.2 0 0 0 .027.031l.189.176.192.179a.197.197 0 0 0 .023.019l.176.12.187.128.252.127.237.119.03.012.296.093.283.089a.2.2 0 0 0 .06.009h7.823a.2.2 0 0 0 .06-.01l.283-.088.296-.093a.2.2 0 0 0 .03-.012l.237-.119.238-.12a.215.215 0 0 0 .026-.015l.238-.169.234-.165a.2.2 0 0 0 .03-.027l.176-.189.179-.192a.203.203 0 0 0 .019-.023l.12-.176.128-.188.126-.25.126-.25.098-.292.088-.261a.198.198 0 0 0 .011-.064l.013-3.66.012-3.663a.198.198 0 0 0-.007-.056l-.04-.14-.034-.117a.2.2 0 0 0-.05-.086l-2.64-2.649-2.663-2.67a.199.199 0 0 0-.032-.027l-.168-.109-.136-.088A.2.2 0 0 0 11.62 2l-2.257.003-2.297.004a.2.2 0 0 0-.042.004l-.23.05ZM10.83 4.66l.015 1.293a.2.2 0 0 0 .01.06l.087.263.092.278.011.028.12.237.126.25.128.188.12.175a.197.197 0 0 0 .018.024l.18.192.175.188c.01.01.02.02.03.027l.234.166.238.169a.202.202 0 0 0 .027.015l.236.119.237.119a.201.201 0 0 0 .027.01l.278.093.263.086a.2.2 0 0 0 .06.01l1.296.016 1.128.013a.2.2 0 0 1 .197.2l-.011 2.98-.012 3.144a.202.202 0 0 1-.012.067l-.085.237-.089.246a.207.207 0 0 1-.021.043l-.133.2-.13.196a.202.202 0 0 1-.036.04l-.126.11-.134.119a.201.201 0 0 1-.025.019l-.14.088-.136.086a.199.199 0 0 1-.038.018l-.251.093-.238.087a.2.2 0 0 1-.069.013H7.162a.202.202 0 0 1-.068-.012l-.236-.085-.246-.09a.196.196 0 0 1-.043-.02l-.201-.134-.199-.132a.198.198 0 0 1-.041-.037l-.146-.17-.147-.172a.2.2 0 0 1-.027-.042l-.1-.202-.098-.203a.202.202 0 0 1-.016-.046l-.054-.254-.055-.258a.2.2 0 0 1-.004-.041V5.254a.2.2 0 0 1 .004-.041l.055-.258.054-.254a.2.2 0 0 1 .016-.047l.099-.202.099-.202a.2.2 0 0 1 .027-.042l.147-.172.145-.17a.2.2 0 0 1 .042-.037l.196-.129.201-.132a.2.2 0 0 1 .04-.02l.168-.063.17-.064a.2.2 0 0 1 .038-.01l.188-.031.191-.032a.2.2 0 0 1 .033-.003l1.701-.005 1.52-.004a.2.2 0 0 1 .2.197l.014 1.127Zm4.257 2.675-.05.01a.2.2 0 0 1-.048.005l-.58-.02-.576-.02a.2.2 0 0 1-.058-.01l-.24-.083-.245-.083a.203.203 0 0 1-.046-.023l-.2-.133-.199-.132a.2.2 0 0 1-.041-.036l-.145-.17-.147-.172a.201.201 0 0 1-.028-.042l-.099-.202-.1-.203a.2.2 0 0 1-.015-.046l-.054-.255-.055-.258a.203.203 0 0 1-.004-.04v-.623a.2.2 0 0 1 .34-.141l1.161 1.16 1.45 1.448a.04.04 0 0 1-.02.069Zm-7.276.763-.105.06a.2.2 0 0 0-.074.076l-.061.108-.062.111a.2.2 0 0 0-.026.098V8.8a.2.2 0 0 0 .026.098l.062.112.061.108a.2.2 0 0 0 .076.077l.109.06.111.063a.2.2 0 0 0 .098.026h1.582a.2.2 0 0 0 .098-.026l.112-.063.108-.06a.2.2 0 0 0 .077-.077l.06-.108.063-.112a.2.2 0 0 0 .026-.098v-.248a.2.2 0 0 0-.026-.098l-.062-.111-.061-.109a.2.2 0 0 0-.077-.076l-.108-.06-.111-.063a.2.2 0 0 0-.099-.026h-.797l-.796.002a.2.2 0 0 0-.1.027l-.105.06Zm0 2.67-.105.06a.2.2 0 0 0-.074.076l-.061.109-.062.11a.2.2 0 0 0-.026.098v.248a.2.2 0 0 0 .026.099l.062.111.061.108a.2.2 0 0 0 .076.077l.109.06.111.063a.2.2 0 0 0 .098.026h5.589a.2.2 0 0 0 .098-.026l.111-.062.109-.061a.2.2 0 0 0 .076-.077l.06-.108.064-.111a.2.2 0 0 0 .025-.098v-.249a.2.2 0 0 0-.025-.098l-.063-.111-.061-.109a.2.2 0 0 0-.076-.076l-.109-.06-.111-.063a.2.2 0 0 0-.098-.026h-2.8l-2.799.002a.2.2 0 0 0-.1.027l-.105.061Zm0 2.67-.105.06a.2.2 0 0 0-.074.076l-.061.109-.062.11a.2.2 0 0 0-.026.099v.248a.2.2 0 0 0 .026.098l.062.111.061.108a.2.2 0 0 0 .076.077l.109.06.111.064a.2.2 0 0 0 .098.025h5.589a.2.2 0 0 0 .098-.025l.111-.063.109-.061a.2.2 0 0 0 .076-.077l.06-.108.064-.111a.2.2 0 0 0 .025-.098v-.248a.2.2 0 0 0-.025-.098l-.063-.112-.061-.108a.2.2 0 0 0-.076-.077l-.109-.06-.111-.063a.2.2 0 0 0-.098-.026l-2.8.001-2.799.001a.2.2 0 0 0-.1.027l-.105.061Z" fill="#F56311"/></svg>
